X: 33585
T: Rakes Of Listowel, The
R: jig
M: 6/8
K: Gmajor
|:dBG GB/c/d|~g3 fed|ecA GB/c/d|~e3 gfe|
dBG GBd|gag fed|efg afd|1 gba g2e:|2 gba g2a||
|:gfg bge|~b3 bge|fef afd|~a3 afd|
gfg bge|~b3 bge|afd def|1 gba g2a:|2 gba gfe||

